X: 55
T: Premier Trio pour Piano, Violon et Violoncelle	 Op. 8
C: Fryderyk] [Chopin
%%abc-version 2.0
%%abcx-abcm2ps-target-version 5.9.1 (29 Sep 2008)
%%abc-creator hum2abc beta
%%abcx-conversion-date 2021/10/03 11:23:31
%%abc-edited-by Mateusz Mrugas
%%abc-edited-by Emilia Ziętek
%%abcx-initial-encoding-date 2019-10-23
%%humdrum-veritas 1920003920
%%humdrum-veritas-data 3356986817
%%linebreak <none>
%%barnumbers 0
L: 1/8
M: C|
N: Derived from 008-1c-KI-001-violino.krn
Q: "ALLEGRO CON FUOCO."
K: Bb clef=treble
G8 | 
G2G2z4 | 
Z2 | 
e6e2 | 
{/f} e>dd2z4 | 
z8 | 
F6_A3/G/ | 
G2c2G2d2 | 
G2e4d2- | 
d2c2-cBAG | 
B3c/d/A2z2 | 
B4!trill!=B4{/AB} | 
c2g2-gfed | 
fedc- cB2A- | 
AGBz/A/G3^F | 
G8- | 
G8 | 
^F4G4- | 
G4=F4- | 
F4E4 | 
=B,4C4 | 
D8 | 
!accent!E4D4 | 
E4F4 | 
G2z2A4 | 
D2G4G2 | 
D8 | 
G,2z ^C D=CB,A, | 
G,2z ^C D=CB,A, | 
G, z/ d< cd< fe<=Bc/ | 
e>dA>_B dcBA | 
G2z B =BcGA | 
_B2>B2 =BcGA | 
_B2G2^F2A2 | 
GDCB, A,G, z G | 
_A4-ACEA | 
c2z2z2_AG | 
^F zz2z2z .=A | 
.A zz2z2z .A | 
A zz2z2z .a | 
.a zz2z2D3/D/ | 
.B,/D/G/B/ G/B/A/G/ ^F/A/.E/A/ .D/A/.C/A/ | 
B,/D/G/B/ G/B/A/G/ ^F/A/d/^f/ a/d/d'/c'/ | 
b/a/g/^f/ g/=f/_e/d/ f/e/d/c/ d/c/B/A/ | 
G/A/B/^F/ A/G/=F/E/ !accent!D/E/!accent!C/D/ !accent!B,/C/!accent!A,/B,/ | 
G, zG2D2A2 | 
D2B2D z d^F | 
Gg2Ge2c2 | 
B2z2z4 | 
D4G2B2 | 
d2g2!accent!d4 | 
!accent!B2>G2A2D2 | 
B^FGBA2D2 | 
^C2Az/=C/ =B,DG z | 
E2G,4_B,A, | 
G, zD2!trill!E2Dz/d/ | 
B^FGBA2D2 | 
^C2Az/=C/ =B,DG2 | 
!wedge!E2G,A,B,2DC | 
B,2E2B,2F2 | 
B,2G2_A2{/BA} GA | 
B2e2B2f2 | 
B2g2_a2fd | 
e2!accent!G4G2 | 
G2^G2!accent!A4 | 
B!accent!=G2E D!accent!G2E | 
D^FGE DFGA | 
B zz2z4 | 
z4z2D2 | 
B,4D4- | 
D2G2D2A2 | 
!accent!B4(3BDB (3BDA | 
(3GDG!accent!B2-(3BDB (3BDA | 
G2z2z4 |[1 
z4^F4- | 
F8- | 
F8 :|][2 
z4A4- | 
A4^G4 | 
=G8 || 
F4.G2.A z/ d/ [I:setbarnb 83]| 
.d2.d2z4 | 
Z2 | 
!accent!=e4f2ef | 
!accent!a2g2z4 | 
Z3 | 
A,2D2A,2=E2 | 
G2F zz4 | 
=E2A2E2=B2 | 
d2c zz4 | 
=E2A2E2=B2 | 
d2c zz4 | 
=B,2=E2B,2^F2 | 
A2G zz4 | 
!accent!^F4G2A2 | 
c2B zz4 | 
A4B2c2 | 
!accent!e2d zz4 | 
^c4d2=e2 | 
f2gf=e2d2- | 
d2c2=B2A2 | 
^G6=e2- | 
=e2^c2A4- | 
A6d2- | 
d2=B2G2F2 | 
E2_A2E2B2 | 
E2c2z4 | 
E2c2F2d2 | 
_G2e2z4 | 
z8 | 
_A2_d2A2e2 | 
_A2f2z4 | 
z8 | 
B2e2B2f2 | 
B2_g2z4 | 
=E2B2E2c2 | 
=E2_d4c2 | 
_A2z2z4 | 
C2F2C2G2 | 
C2_A4G2 | 
C2F2=B,2F2 | 
=E2z2z4 | 
G2c2G2d2 | 
G2=e2z4 | 
G2c2G2d2 | 
G2=e2^G2f2 | 
A2^f2z2C2 | 
C8 | 
C6z2 | 
^F2!accent!d4z2 | 
Z3 | 
!accent!G8 | 
.G2.G2z4 | 
Z2 | 
e6e2 | 
{/f} e>dd2z4 | 
Z2 | 
z4F2_A3/G/ | 
G2c2G2d2 | 
e2>d2 cBAG | 
B3c/d/A2D2 | 
G2g2-gfed | 
f2e2!accent!!trill!=B4{/A_B} | 
c2ded2c2 | 
B2G>AB2A2 | 
G8- | 
G8 | 
^F4G4- | 
G4=F4- | 
F4E4 | 
=B,4C4 | 
D8 | 
E4D4 | 
E4F4 | 
G2z2A4 | 
D2!accent!G4G2 | 
D8 | 
G,2z ^C D.=C.B,.A, | 
G,2z .^C .D.=C.B,.A, | 
G, z/ d< cd< !accent!fe<=Bc/ | 
!accent!e>dA>_B dcBA | 
G2z B =BcGA | 
_B2>B2 =BcGA | 
B2z2^F4 | 
G2z2=F4 | 
=E2F2D4 | 
^Cz/=C/ =B,z/_B,/A,2z2 | 
!accent!D8 | 
=E2!accent!=e4f z | 
!accent!B4G3=E | 
F2D>F AG=EF | 
D=EF^FG4 | 
=EFG^G2<A2F | 
D=EF^FG4- | 
G2=F2!accent!=E4 | 
D/A/f/g/ a/d/d'/c'/ b/d/b/a/ g/d/g/f/ | 
!trill!=e/d/e/f/ g/c/c'/b/ a/c/a/g/ f/c/f/e/ | 
db/a/ g/f/=e/d/ ^c/e/a/g/ {/fg} f/e/f/d/ | 
Af/=e/ d/A/F/G/ A/B/A/^G/ A/=E/=G/F/ | 
D2A2!trill!B2A3/a/ | 
f2=ede2A2 | 
^G2=e z/ =G< ^FA/d2 | 
B2!accent!D4F=E | 
D2A2!trill!B2A3/a/ | 
f^cdf=e2A2 | 
^G2=e z/ =G/ ^FAd2 | 
B2D=EF2AG | 
F2B2F2c2 | 
F2d2_e2cA | 
F2B2F2c2 | 
F2d2e2cA | 
B2D4D2 | 
D2E2=E4 | 
F2F4F2 | 
^F2G4B2 | 
A2!accent!A4=B2 | 
G2!accent!G4A2 | 
F2F4F2 | 
=E2_E2D4 | 
_E8- | 
E4G4 | 
!accent!B4A2G2 | 
B4_A2G2 | 
B4z4 | 
z8 | 
z!accent!d2A B!accent!d2A | 
B!accent!d2A Bcde | 
d2z2z4 | 
z8 | 
G,6G2 | 
G,4z4 | 
A,6E2 | 
A,2D4z2 | 
G,6G2 | 
G,6z2 | 
A6!accent!e2 | 
A2!accent!d4z2 | 
[D8G,8]- | 
[D8G,8-] | 
[E2G,2]z2z4 | 
z4[D4A,4] | 
[D4G,4][G4G,4] | 
G,4z4 | 
z4!accent!E4 & A,8 | 
[D4A,4]z4 | 
D4G4 & G,8 | 
G,4z4 | 
A8 & z4!accent!E4 | 
.[A4D4]z4 | 
!accent![D8G,8] | 
=B,C/D/ E/F/G/A/ =B/c/d/e/ f/g/a/=b/ | 
.c'2z2z2E2 | 
D/=E/^F/G/ A/B/A/G/ F/G/A/B/ c/d/_e/d/ | 
G4[G4B,4] | 
!wedge![G2C2]!wedge![G2B,2]z4 | 
D2G2D2A2 | 
D2B4z2 | 
[G8B,8]- | 
[G8B,8]- | 
[G6B,6]!arpeggio![^f2A2D2] | 
!arpeggio![g2B2D2G,2]z2z4 |]
